modules/hawcons-stroke/icons/cloud-fog.svg

<?xml version="1.0" encoding="UTF-8" standalone="no"?>
<svg width="32px" height="32px" viewBox="0 0 32 32" version="1.1" xmlns="http://www.w3.org/2000/svg" xmlns:xlink="http://www.w3.org/1999/xlink" xmlns:sketch="http://www.bohemiancoding.com/sketch/ns">
    <!-- Generator: Sketch 3.0.3 (7891) - http://www.bohemiancoding.com/sketch -->
    <title>icon 24 cloud fog</title>
    <desc>Created with Sketch.</desc>
    <defs></defs>
    <g id="Page-1" stroke="none" stroke-width="1" fill="none" fill-rule="evenodd" sketch:type="MSPage">
        <g id="icon-24-cloud-fog" sketch:type="MSArtboardGroup" fill="#929292">
            <path d="M3.01435298,20.382213 C3.00484149,20.256058 3,20.128596 3,20 C3,17.9491311 4.23965876,16.1816085 6.01189661,15.4115388 L6.01189661,15.4115388 C6.00400207,15.275367 6,15.1381509 6,15 C6,14.8673058 6.00369217,14.735474 6.01097937,14.6046017 L6.01097937,14.6046017 C6.00379095,14.5708677 6,14.5358751 6,14.5 C6,14.4393285 6.01133839,14.380508 6.03204832,14.3258084 C6.37126467,10.7761208 9.36143327,8 13,8 C15.2979469,8 17.3372745,9.10728055 18.6135384,10.8173973 C19.4525719,10.299097 20.441357,10 21.5,10 C24.5090248,10 26.9536744,12.4163763 26.9993494,15.4145295 L26.9993494,15.4145295 C28.7676457,16.1852931 30,17.9483386 30,20 C30,20.1285889 29.9951266,20.2560638 29.9855541,20.3822489 C29.9949644,20.4200088 30,20.4594404 30,20.5 C30,20.577858 29.9814301,20.652668 29.9484241,20.7196325 C29.5990391,23.1360614 27.5169034,25 25.0005601,25 L7.99943992,25 C5.47646707,25 3.39785142,23.1387884 3.05090665,20.7170869 C3.01852303,20.6514307 3,20.5777899 3,20.5 C3,20.4596992 3.00497542,20.4202151 3.01435298,20.382213 L3.01435298,20.382213 Z M4,20 C4,19.6548633 4.04392109,19.3197573 4.12649336,19 L4.12649336,19 L28.8735341,19 C28.9560741,19.3196199 29,19.6547004 29,20 L4,20 L4,20 Z M4.12646589,21 C4.21808339,21.3547709 4.35727535,21.6904936 4.53677755,22 L4.53677755,22 L28.4633372,22 C28.6428094,21.6903822 28.7819289,21.3546307 28.8735066,21 L4.12646589,21 L4.12646589,21 Z M8.52778687,11 C8.25337543,11.3065967 8.01002833,11.6415792 7.80269309,12 L7.80269309,12 L18.1973069,12 C17.9899717,11.6415792 17.7466246,11.3065967 17.4722131,11 L8.52778687,11 L8.52778687,11 L8.52778687,11 Z M9.68220474,10 C10.632511,9.3681527 11.7732622,9 13,9 C14.2267378,9 15.367489,9.3681527 16.3177953,10 L9.68220474,10 L9.68220474,10 L9.68220474,10 Z M7.3501465,12.9754571 C7.23218227,13.304618 7.14216624,13.6470856 7.08295843,14 L7.08295843,14 L25.7439415,14 C25.6181033,13.643971 25.4487328,13.3085058 25.2422256,13 L7.5082041,13 C7.45297145,13 7.39985382,12.9913874 7.3501465,12.9754571 L7.3501465,12.9754571 L7.3501465,12.9754571 Z M18.6713327,12 C19.4441958,11.3746001 20.4283516,11 21.5,11 C22.5716484,11 23.5558042,11.3746001 24.3286673,12 L18.6713327,12 L18.6713327,12 L18.6713327,12 Z M7,15 C7,15.3407122 7.02839879,15.6747915 7.08295843,16 L7.08295838,16 L25.9725356,16 C25.9906833,15.8358331 26,15.6690046 26,15.5 C26,15.3309955 25.9906833,15.1641669 25.9725356,15 L7,15 L7,15 L7,15 Z M5.37541421,16.9837499 C5.04304943,17.2732379 4.75891475,17.6165803 4.53666277,18 L4.53666277,18 L28.4632224,18 C28.2407558,17.6164123 27.9563729,17.2730926 27.623902,16.9836863 C27.5837366,16.9943114 27.541623,17 27.4982224,17 L5.5017776,17 C5.45824191,17 5.41587894,16.9943542 5.37541421,16.9837499 L5.37541421,16.9837499 L5.37541421,16.9837499 Z M5.3574725,23 C6.06364763,23.6223634 6.99032661,24 8.00281647,24 L24.9971835,24 C26.0115087,24 26.9377152,23.6220385 27.6431279,23 L5.3574725,23 L5.3574725,23 L5.3574725,23 Z" id="cloud-fog" sketch:type="MSShapeGroup"></path>
        </g>
    </g>
</svg>

<svg width="32" height="32" viewBox="0 0 32 32" xmlns="http://www.w3.org/2000/svg"><path d="M3.014 20.382a5.006 5.006 0 0 1 2.998-4.97 7.11 7.11 0 0 1-.001-.807.501.501 0 0 1 .021-.28 7 7 0 0 1 12.582-3.508A5.5 5.5 0 0 1 27 15.414a4.998 4.998 0 0 1 2.986 4.968.486.486 0 0 1-.038.338A5.005 5.005 0 0 1 25.001 25H7.999a4.996 4.996 0 0 1-4.948-4.283.49.49 0 0 1-.037-.335zM4 20c0-.345.044-.68.126-1h24.748c.082.32.126.655.126 1H4zm.126 1c.092.355.231.69.41 1h23.927c.18-.31.319-.645.41-1H4.127zm4.402-10a6.019 6.019 0 0 0-.725 1h10.394a6.019 6.019 0 0 0-.725-1H8.528zm1.154-1c.95-.632 2.091-1 3.318-1 1.227 0 2.367.368 3.318 1H9.682zM7.35 12.975c-.118.33-.208.672-.267 1.025h18.66a4.484 4.484 0 0 0-.5-1H7.507a.517.517 0 0 1-.158-.025zM18.671 12c.773-.625 1.757-1 2.829-1 1.072 0 2.056.375 2.829 1H18.67zM7 15c0 .34.028.675.083 1h18.89a4.55 4.55 0 0 0 0-1H7zm-1.625 1.984c-.332.29-.616.633-.838 1.016h23.926a4.027 4.027 0 0 0-.84-1.016.49.49 0 0 1-.125.016H5.502a.498.498 0 0 1-.127-.016zM5.357 23a3.99 3.99 0 0 0 2.646 1h16.994c1.015 0 1.94-.378 2.646-1H5.357z" fill="#929292" fill-rule="evenodd"/></svg>
